X:1
T:Title
%%score { ( 1 3 ) | 2 }
L:1/8
M:4/4
K:Bb
V:1 treble nm="Grand Piano"
V:3 treble 
V:2 bass 
V:1
 z4 z2 z[Q:1/4=96] [DF] | [DF][DF][DF][DF] [DF][DF][EG][EF] | [DF]2 [DB]4 z [DB] | %3
 ccBc [Fd][Fc][B,GB][B,EG] | [EG]2 [B,DF]4 z F | c3 d [B,DB]2 z B | [Ge]2 [^FB]2 [=Fd]2 z d | %7
 fddc B[FA][EG][EF] |[M:7/8] [DF]2 [DB]- [DB]3 z |[M:1/8] [DB] |[M:4/4] c2 de [Fd]3 [Bf] | %11
 [Af]2 [Fc][Fe] [Fd]2 [Fd][Fd] | d2 de f2 d2 | [FB]2 [Fc][Fd] c2 z F | F2 GA B2 z [FBd] | %15
[M:9/8] [EBe]2 [Bf] [Bf] [Bg]2- [Bg] [Fc]2 |[M:4/4] [Ff]2 [Fd][Fd] fe[Gd][Gc] | %17
[M:7/8] B2 A A [DB]2 z |] %18
V:2
 z4 z2 z [B,,B,] | [B,,B,][B,,B,][B,,B,][B,,B,] [B,,B,][B,,B,][E,B,][F,A,] | %2
 [B,,B,]2 [B,,F,]4 z [B,,B,] | [F,A,F][F,A,F][F,G,F][F,A,F] [B,,B,][D,B,]E,G, | B,2 B,,4 z F, | %5
 [F,A,E]3 [F,A,F] B,,2 z B, | [E,B,]2 [E,B,]2 [B,,B,]2 z[K:treble] [B,F] | %7
 [B,DF][B,F][K:bass][F,A,F][F,A,E] [G,B,D][D,B,][E,B,][F,A,] | %8
[M:7/8] [B,,B,]2 [B,,F,]- [B,,F,]3 z |[M:1/8] [B,,B,] | %10
[M:4/4] [F,A,F]2 [F,B,F][F,CF] [B,,B,]3 [B,D] | [F,C]2 [F,A,][F,A,] [B,,B,]2 [B,,B,][B,,B,] | %12
 [B,F]2 [B,F][B,CF] [B,DF]2 [B,F]2 | [D,B,]2 [C,A,][B,,B,] [F,A,F]2 z F, | F,2 G,A, B,2 z _A, | %15
[M:9/8] G,2 [F,D] [F,D] [E,E]2- [E,E] [E,A,]2 |[M:4/4] [D,B,]2 [G,=B,][G,B,] [C,C]2 [D,B,][E,C] | %17
[M:7/8] [F,DF]2 [F,CE] [F,CE] [B,,B,]2 z |] %18
V:3
 x8 | x8 | x8 | x8 | x8 | x8 | x8 | x8 |[M:7/8] x7 |[M:1/8] x |[M:4/4] x8 | x8 | x8 | x8 | x8 | %15
[M:9/8] x9 |[M:4/4] z4 G2 z2 |[M:7/8] x7 |] %18

